svgs/sharp-solid/restroom.svg

<svg xmlns="http://www.w3.org/2000/svg" viewBox="0 0 640 512"><!--! Font Awesome Pro 6.6.0 by @fontawesome - https://fontawesome.com License - https://fontawesome.com/license (Commercial License) Copyright 2024 Fonticons, Inc. --><path d="M80 48a48 48 0 1 1 96 0A48 48 0 1 1 80 48zM53.4 128l23.5 0 102.2 0 23.5 0 7 22.5 44.9 144-54.5 17L200 480l0 32-64 0 0-32 0-128-16 0 0 128 0 32-64 0 0-32 0-168.5-54.5-17 44.9-144 7-22.5zM344 0l0 24 0 464 0 24-48 0 0-24 0-464 0-24 48 0zM464 48a48 48 0 1 1 96 0 48 48 0 1 1 -96 0zm-26.6 80l23.5 0 102.2 0 23.5 0 7 22.5 44.9 144L598.3 307 624 384l-40 0 0 96 0 32-64 0 0-32 0-96-16 0 0 96 0 32-64 0 0-32 0-96-40 0 25.7-77-40.2-12.5 44.9-144 7-22.5z"/></svg>

<svg xmlns="http://www.w3.org/2000/svg" viewBox="0 0 640 512"><!--! Font Awesome Pro 6.4.2 by @fontawesome - https://fontawesome.com License - https://fontawesome.com/license (Commercial License) Copyright 2023 Fonticons, Inc. --><path d="M80 48a48 48 0 1 1 96 0A48 48 0 1 1 80 48zM53.4 128H76.9 179.1h23.5l7 22.5 44.9 144-54.5 17V480v32H136V480 352H120V480v32H56V480 311.5l-54.5-17 44.9-144 7-22.5zM344 0V24 488v24H296V488 24 0h48zM464 48a48 48 0 1 1 96 0 48 48 0 1 1 -96 0zm-26.6 80h23.5H563.1h23.5l7 22.5 44.9 144L598.3 307 624 384H584v96 32H520V480 384H504v96 32H440V480 384H400l25.7-77-40.2-12.5 44.9-144 7-22.5z"/></svg>
